archive-arrow-down-outline.svg

<svg fill="currentColor" viewBox="0 0 24 24"><path d="M20 21H4V10h2v9h12v-9h2zM3 3h18v6H3zm2 2v2h14V5m-8.5 6v3H8l4 4 4-4h-2.5v-3"/></svg>

<svg  viewBox="0 0 24 24" fill="currentColor"><path  d="M20 21H4V10H6V19H18V10H20V21M3 3H21V9H3V3M5 5V7H19V5M10.5 11V14H8L12 18L16 14H13.5V11"/></svg>
